X: 1
T: Miss Gordon of Cairnfield's Reel
C: William Marshall
O: Strathspey
S: Marshall - 1781 Collection
Z: AK/Fiddler's Companion
R: reel
M: C
L: 1/8
K: B
E|E2 (B,D) FD BF|DB,FD ECCE|D2 (B,D) FDBF|ecdA BB,B,:|e|defd gefd|ecdB ecce|defd gefd|(gab)f dBBe|defd gefd|ecdc eccd|dB,fD GEBG|FDGE DB,B,||
